X:1
T:The King of Denmarkes Galiard
T:John Dowland Arranged by Gary Kerr
%%score 1 2 3 ( 4 5 )
L:1/8
M:3/4
K:F
V:1 treble-8 nm="I"
V:2 treble-8 nm="II"
V:3 treble-8 nm="III"
V:4 treble-8 nm="IV"
V:5 treble-8 
V:1
 a2 a2 a2 | a2 g^f eg | ^f2 ed e2 | d6 | a2 d'2 a2 | a2 g^f eg | ^f2 ed e2 | d6 | c'2 f'2 c'2 | %9
 c'3 b ag | fa g3 g | f6 | f'c' c'2 c'2 | c'3 b a>g | fa g3 g | f6 | a>c' =b>d' ^c'>e' | d'3 a fa | %18
 gf ed e2 | d6 | a>c' =b>d' ^c'>e' | d'2 f'2 d2 | f>g ad e2 | d6 :| %24
V:2
 d2 d4 | d6 | d2 d2 ^c2 | d6 | d2 d4 | d6 | d2 d2 ^c2 | d6 | a2 a2 a2 | a3 g f2- | f f2 f e2 | f6 | %12
 a2 a2 a2 | a3 g f2- | f f2 f e2 | f6 | fa g>f ea- | a f2 f df | e d2 ^c/=B/ c2 | d6 | cf dg ea- | %21
 a f2 d f>g | af- f/e/ d2 ^c | d6 :| %24
V:3
 ^F6 | ^F6 | z D E^F GE | ^FG A4 | ^F6 | ^F6 | z D E^F GE | ^FG A4 | c3 A2 F- | FA c4 | F2 G2 C2 | %11
 C6 | c3 A2 F- | FA c4 | F2 G2 C2 | C6 | z A d=B e^c | dD F>G AF | G3 E2 A | ^F3 G A2 | %20
 A d2 =B e^c | d D2 F2 F | DA- A/G/F E>G | ^F2 D4 :| %24
V:4
 A2 A4 | A6 | A2 A2 A2 | A3 G ^F2 | A2 A4 | A6 | A2 A2 A2 | A6 | f2 f4 | f4 c2- | c2 c3 B | A6 | %12
 f2 f4 | f4 c2- | c2 c3 B | A6 | cf d g2 e | f>e d3 d | B2 z2 A2- | AG ^FE F2 | fd ge a>g | %21
 f>e d3 A- | A d2 A A2- | AG ^FE F2 :| %24
V:5
 D2 D4 | D6 | D2 A,4 | D,6 | D2 D4 | D6 | D2 A,4 | D,6 | F2 F4 | F4 F2- | F2 C4 | F,6 | F2 F4 | %13
 F4 F2- | F2 C4 | F,6 | F2 G2 A2 | D6 | G,2 A,4 | D,6 | F2 G2 A2 | D6 | D4 A,2 | D,6 :| %24

